shared/img/tn-adtech.svg

<?xml version="1.0" encoding="UTF-8"?>
<svg width="13px" height="14px" viewBox="0 0 13 14" version="1.1" xmlns="http://www.w3.org/2000/svg" xmlns:xlink="http://www.w3.org/1999/xlink">
    <!-- Generator: sketchtool 47.1 (45422) - http://www.bohemiancoding.com/sketch -->
    <title>AF0FCE1F-3FDB-4E18-90EA-BAC8DF66F4D5</title>
    <desc>Created with sketchtool.</desc>
    <defs></defs>
    <g id="V4--RC-Updates" stroke="none" stroke-width="1" fill="none" fill-rule="evenodd">
        <g id="ASSETS--Pill-Icons" transform="translate(-181.000000, -553.000000)" fill-rule="nonzero" fill="#FFFFFF">
            <g id="adtech" transform="translate(181.000000, 553.000000)">
                <path d="M0.936,2.6 C0.600615222,2.81490005 0.408176411,3.19480081 0.433333333,3.59233333 C0.433333333,5.49033333 0.433333333,7.384 0.433333333,9.282 C0.419877551,9.71725488 0.648378554,10.1242202 1.027,10.3393333 C1.34333333,10.5386667 1.677,10.7076667 1.99333333,10.907 C2.20133333,11.0413333 2.27066667,11.0283333 2.33133333,10.7596667 C2.626,9.39033333 2.951,8.021 3.263,6.656 C3.72666667,4.61066667 4.19466667,2.56966667 4.68433333,0.416 C3.37566667,1.19166667 2.16666667,1.88933333 0.936,2.6 Z" id="Shape"></path>
                <path d="M12.7703333,3.55333333 C12.7869498,3.16823297 12.5926818,2.8046031 12.2633333,2.60433333 C11.0586667,1.885 9.841,1.19166667 8.54533333,0.437666667 C8.58,0.598 8.58866667,0.671666667 8.606,0.745333333 C9.01333333,2.53066667 9.41922222,4.316 9.82366667,6.10133333 C10.1746667,7.657 10.5343333,9.21266667 10.881,10.7726667 C10.933,11.0153333 11.0066667,11.0673333 11.2276667,10.9156667 C11.5353333,10.7076667 11.8733333,10.543 12.194,10.348 C12.5514293,10.147921 12.772108,9.76961466 12.7703333,9.36 C12.7746667,7.42733333 12.7703333,5.49033333 12.7703333,3.55333333 Z" id="Shape"></path>
                <path d="M6.78166667,3.66166667 C6.75566667,3.54466667 6.78166667,3.367 6.591,3.37566667 C6.40033333,3.38433333 6.46533333,3.549 6.44366667,3.653 C5.80233333,6.435 5.16244444,9.21555556 4.524,11.9946667 C4.48565935,12.0870946 4.48609961,12.1910582 4.52522168,12.283158 C4.56434375,12.3752579 4.63886042,12.4477554 4.732,12.4843333 C5.16533333,12.6966667 5.55966667,12.9523333 5.97133333,13.1906667 C6.19504221,13.3225746 6.45313179,13.3844558 6.71233333,13.3683333 C6.8932113,13.3536899 7.06823464,13.2973264 7.22366667,13.2036667 C7.63533333,12.961 8.04266667,12.7053333 8.46733333,12.493 C8.71,12.3673333 8.74033333,12.2286667 8.684,11.973 C8.04266667,9.204 7.41433333,6.43066667 6.78166667,3.66166667 Z" id="Shape"></path>
            </g>
        </g>
    </g>
</svg>

<svg width="13" height="14" xmlns="http://www.w3.org/2000/svg"><g fill-rule="nonzero" fill="#FFF"><path d="M.936 2.6a1.096 1.096 0 0 0-.503.992v5.69c-.013.435.215.842.594 1.057.316.2.65.369.966.568.208.134.278.121.338-.147.295-1.37.62-2.739.932-4.104.464-2.045.932-4.086 1.421-6.24C3.376 1.192 2.167 1.889.936 2.6zM12.77 3.553a1.057 1.057 0 0 0-.507-.949C11.06 1.885 9.841 1.192 8.545.438c.035.16.044.234.061.307l1.218 5.356c.35 1.556.71 3.112 1.057 4.672.052.242.126.294.347.143.307-.208.645-.373.966-.568.357-.2.578-.578.576-.988.005-1.933 0-3.87 0-5.807zM6.782 3.662c-.026-.117 0-.295-.191-.286-.19.008-.126.173-.147.277-.642 2.782-1.282 5.563-1.92 8.342a.373.373 0 0 0 .208.49c.433.212.828.467 1.24.706a1.3 1.3 0 0 0 .74.177c.181-.014.356-.07.512-.164.411-.243.819-.499 1.243-.711.243-.126.273-.264.217-.52-.641-2.769-1.27-5.542-1.902-8.311z"/></g></svg>
